X:795
T: Owenmore
S: B.Breathnach:"Ceol Rince na hEireann" IV/87 (gan ainm)
Z: B.Black
L: 1/8
M: 2/4
Q: 280
R: polka
K: G
d/c/|BD BD|B/A/B/d/ ed|cA f/g/a/f/|gg g/e/d/c/|
BD BD|B/A/B/d/ ed|cA f/g/a/f/|gg g :|
e|: fg/f/ ef/e/|dD FA|Bc/B/ Ag|fg/f/ e2|
fg/f/ ef/e/|dD FA|BB A/g/e/f/|dd d2 :|
